polaris-icons/icons/new-icons/FollowUpEmailMajor.svg

<svg width="20" height="20" viewBox="0 0 20 20" fill="none" xmlns="http://www.w3.org/2000/svg">
<path d="M3 7.25C3 5.73122 4.23122 4.5 5.75 4.5H14.25C15.7688 4.5 17 5.73122 17 7.25V9.75C17 10.1642 16.6642 10.5 16.25 10.5C15.8358 10.5 15.5 10.1642 15.5 9.75V7.25C15.5 6.55964 14.9404 6 14.25 6H5.75C5.05964 6 4.5 6.55964 4.5 7.25V12.75C4.5 13.4404 5.05964 14 5.75 14H10C10.4142 14 10.75 14.3358 10.75 14.75C10.75 15.1642 10.4142 15.5 10 15.5H5.75C4.23122 15.5 3 14.2688 3 12.75V7.25Z" fill="#4A4A4A"/>
<path d="M11.75 14.25C11.75 13.8358 12.0858 13.5 12.5 13.5H15.4393L14.7197 12.7803C14.4268 12.4874 14.4268 12.0126 14.7197 11.7197C15.0126 11.4268 15.4874 11.4268 15.7803 11.7197L17.7803 13.7197C18.0732 14.0126 18.0732 14.4874 17.7803 14.7803L15.7803 16.7803C15.4874 17.0732 15.0126 17.0732 14.7197 16.7803C14.4268 16.4874 14.4268 16.0126 14.7197 15.7197L15.4393 15H12.5C12.0858 15 11.75 14.6642 11.75 14.25Z" fill="#4A4A4A"/>
<path d="M6.56716 7.57054C6.19181 7.39538 5.74552 7.55766 5.57036 7.93301C5.39519 8.30837 5.55748 8.75465 5.93283 8.92982L9.47139 10.5811C9.80645 10.7375 10.1935 10.7375 10.5286 10.5811L14.0672 8.92982C14.4425 8.75465 14.6048 8.30837 14.4296 7.93301C14.2545 7.55766 13.8082 7.39538 13.4328 7.57054L10 9.17253L6.56716 7.57054Z" fill="#4A4A4A"/>
</svg>

<svg viewBox="0 0 20 20" xmlns="http://www.w3.org/2000/svg"><path d="M3 7.25a2.75 2.75 0 0 1 2.75-2.75h8.5a2.75 2.75 0 0 1 2.75 2.75v2.5a.75.75 0 0 1-1.5 0v-2.5c0-.69-.56-1.25-1.25-1.25h-8.5c-.69 0-1.25.56-1.25 1.25v5.5c0 .69.56 1.25 1.25 1.25h4.25a.75.75 0 0 1 0 1.5h-4.25a2.75 2.75 0 0 1-2.75-2.75v-5.5Z" fill="#5C5F62"/><path d="M11.75 14.25a.75.75 0 0 1 .75-.75h2.94l-.72-.72a.75.75 0 1 1 1.06-1.06l2 2a.75.75 0 0 1 0 1.06l-2 2a.75.75 0 1 1-1.06-1.06l.72-.72h-2.94a.75.75 0 0 1-.75-.75Z" fill="#5C5F62"/><path d="M6.567 7.57a.75.75 0 0 0-.634 1.36l3.538 1.651a1.25 1.25 0 0 0 1.058 0l3.538-1.651a.75.75 0 0 0-.634-1.36l-3.433 1.603-3.433-1.602Z" fill="#5C5F62"/></svg>
